!!!COM: Vivaldi, Antonio Lucio
!!!CDT: 1678/03/04-1741/08/28
!!!OPR: 12 sonatas for two violins and basso continuo
!!!OTL: Sonata in G major, op. @{OPS}, no. @{ONM} (@{SCT})
!!!OPS: 1
!!!ONM: 1
!!!OMV: 2. Allemanda
!!!SCT: RV 73
!!!SCA: Antonio Vivaldi: Thematisch-systematisches Verzeichnis seiner Werke (Ryom-Verzeichnis)
!!!OMD: Allegro
!!!key: g
**kern	**dynam	**fb	**kern	**dynam	**kern	**dynam
*part3	*	*	*part2	*	*part1	*
*staff3	*	*	*staff2	*	*staff1	*
*ICstr&ICklav	*	*	*ICstr	*	*ICstr	*
*Icello&Icemba	*	*	*Ivioln	*	*Ivioln	*
*	*	*	*I#2	*	*I#1	*
*I"Violoncello\nContinuo	*	*	*I"Violin 2	*	*I"Violin 1	*
*I'bc	*	*	*I'v2	*	*I'v1	*
*>[A,A,B,B]	*>[A,A,B,B]	*>[A,A,B,B]	*>[A,A,B,B]	*>[A,A,B,B]	*>[A,A,B,B]	*>[A,A,B,B]
*>norep[A,B]	*>norep[A,B]	*>norep[A,B]	*>norep[A,B]	*>norep[A,B]	*>norep[A,B]	*>norep[A,B]
*>A	*>A	*>A	*>A	*>A	*>A	*>A
*clefF4	*	*	*clefG2	*	*clefG2	*
*k[b-]	*	*	*k[b-]	*	*k[b-]	*
*g:	*	*	*g:	*	*g:	*
*M4/4	*	*	*M4/4	*	*M4/4	*
*met(c)	*	*	*met(c)	*	*met(c)	*
*MM124	*	*	*MM124	*	*MM124	*
8r	.	.	8r	.	8dd\	.
=1	=1	=1	=1	=1	=1	=1
8r	.	.	4r	.	8gg\L	.
8G\	.	.	.	.	8dd\	.
4F#X\	.	6	8r	.	8aa\	.
.	.	.	8dd\	.	8dd\J	.
8r	.	.	8gg\L	.	4bb-y\	.
8G\	.	.	8dd\	.	.	.
4F#X\	.	6	8aa\	.	8r	.
.	.	.	8dd\J	.	8aa\	.
=2	=2	=2	=2	=2	=2	=2
8r	.	.	4bb-y\	.	8gg\L	.
8G\	.	.	.	.	8dd\	.
4F#X\	.	6	8r	.	8aa\	.
.	.	.	8aa\	.	8dd\J	.
8G\L	.	.	8gg\L	.	4.bb-y\	.
8Fn\	.	.	8dd\J	.	.	.
8E-X\	.	6 5	[4ccc\	.	.	.
8D\J	.	.	.	.	8gg\	.
=3	=3	=3	=3	=3	=3	=3
8C/L	.	6-r -	4ccc\]	.	(8aa-X\L	.
8D/	.	#	.	.	8ff#X\J)	.
8E-X/	.	5	(8bb-y\L	.	2gg\t	.
8C/J	.	6 5 -	8aa\J)	.	.	.
8D/L	.	6 4	4bb-y\T	.	.	.
8C/	.	.	.	.	.	.
8D/	.	5 #	4aa\	.	4ff#X\	.
8DD/J	.	.	.	.	.	.
=4	=4	=4	=4	=4	=4	=4
4GG/	.	.	16gg\LL	.	4gg\	.
.	.	.	16dd\	.	.	.
.	.	.	16b-y\	.	.	.
.	.	.	16gg\JJ	.	.	.
4BB-y/	.	6	16gg\LL	.	4r	.
.	.	.	16dd\	.	.	.
.	.	.	16b-y\	.	.	.
.	.	.	16gg\JJ	.	.	.
4C/	.	-	2ee-X\	.	16gg\LL	.
.	.	.	.	.	16ee-X\	.
.	.	.	.	.	16cc\	.
.	.	.	.	.	16gg\JJ	.
4c\	.	.	.	.	16gg\LL	.
.	.	.	.	.	16ee-X\	.
.	.	.	.	.	16cc\	.
.	.	.	.	.	16gg\JJ	.
!!LO:LB:g=original
=5	=5	=5	=5	=5	=5	=5
4F\	.	.	16ff\LL	.	2aa\	.
.	.	.	16cc\	.	.	.
.	.	.	16a\	.	.	.
.	.	.	16ff\JJ	.	.	.
4AA/	.	6	16ff\LL	.	.	.
.	.	.	16cc\	.	.	.
.	.	.	16a\	.	.	.
.	.	.	16ff\JJ	.	.	.
4BB-y/	.	.	4.dd\	.	16ff\LL	.
.	.	.	.	.	16dd\	.
.	.	.	.	.	16b-y\	.
.	.	.	.	.	16ff\JJ	.
4D\	.	6	.	.	16ff\LL	.
.	.	.	.	.	16dd\	.
.	.	.	8ff\	.	16b-y\	.
.	.	.	.	.	16ff\JJ	.
=6	=6	=6	=6	=6	=6	=6
4E-X\	.	6	4.cc\	.	16gg\LL	.
.	.	.	.	.	16ee-X\	.
.	.	.	.	.	16cc\	.
.	.	.	.	.	16gg\JJ	.
4F\	.	.	.	.	16aa\LL	.
.	.	.	.	.	16ff\	.
.	.	.	8ff\	.	16cc\	.
.	.	.	.	.	16aa\JJ	.
8BB-y/L	.	.	8dd\L	.	16bb-y\LL	.
.	.	.	.	.	16ff\	.
8E-X/	.	.	(16cc\L	.	16ee-X\	.
.	.	.	16b-y\JJ)	.	16dd\JJ	.
8F/	.	.	8.a/L	.	8.cc\L	.
8FF/J	.	.	.	.	.	.
.	.	.	16b-y/Jk	.	16b-y\Jk	.
=7	=7	=7	=7	=7	=7	=7
4BB-y/	.	.	4b-y\	.	8b-y\L	.
.	.	.	.	.	8ff\J	.
4r	.	.	8r	.	[4bb-y\	.
.	.	.	8b-y\	.	.	.
2r	.	.	[2ff\	.	8bb-y\L]	.
.	.	.	.	.	8aa-X\J	.
.	.	.	.	.	16aa-y\LL	.
.	.	.	.	.	16gg\	.
.	.	.	.	.	16ff\	.
.	.	.	.	.	16aa-X\JJ	.
=8	=8	=8	=8	=8	=8	=8
1r	.	.	8ff\L]	.	8gg\L	.
.	.	.	8ee-X\J	.	8cc\J	.
.	.	.	16ee-y\LL	.	[4ccc\	.
.	.	.	16dd\	.	.	.
.	.	.	16cc\	.	.	.
.	.	.	16ee-X\JJ	.	.	.
.	.	.	8dd\L	.	8ccc\L]	.
.	.	.	8g\J	.	8bb-y\J	.
.	.	.	[4gg\	.	16bb-y\LL	.
.	.	.	.	.	16aa\	.
.	.	.	.	.	16gg\	.
.	.	.	.	.	16bb-y\JJ	.
!!LO:LB:g=original
=9	=9	=9	=9	=9	=9	=9
1r	.	.	8gg\L]	.	8aa\L	.
.	.	.	8ff\J	.	8dd\J	.
.	.	.	16ff\LL	.	[4ddd\	.
.	.	.	16ee\	.	.	.
.	.	.	16dd\	.	.	.
.	.	.	16ff\JJ	.	.	.
.	.	.	8ee\L	.	8ddd\L]	.
.	.	.	8a\J	.	8ccc\J	.
.	.	.	[4aa\	.	16ccc\LL	.
.	.	.	.	.	16bb-y\	.
.	.	.	.	.	16aa\	.
.	.	.	.	.	16ccc\JJ	.
=10	=10	=10	=10	=10	=10	=10
16d\LL	.	6 5	8.aa\L]	.	[4bb-y\	.
16c\	.	.	.	.	.	.
16B-y\	.	.	.	.	.	.
16d\JJ	.	.	16ff\Jk	.	.	.
16e-X\LL	.	.	[4gg\	.	8.bb-y\L]	.
16d\	.	.	.	.	.	.
16e-y\	.	.	.	.	.	.
16B-y\JJ	.	.	.	.	16gg\Jk	.
16c\LL	.	6 5	8.gg\L]	.	[4aa\	.
16B-y\	.	.	.	.	.	.
16A\	.	.	.	.	.	.
16c\JJ	.	.	16ee\Jk	.	.	.
16d\LL	.	.	[4ff\	.	8.aa\L]	.
16c\	.	.	.	.	.	.
16d\	.	.	.	.	.	.
16A\JJ	.	.	.	.	16ff\Jk	.
=11	=11	=11	=11	=11	=11	=11
16B-y\LL	.	6 5	8.ff\L]	.	[4gg\	.
16A\	.	.	.	.	.	.
16G\	.	.	.	.	.	.
16B-y\JJ	.	.	16dd\Jk	.	.	.
16c\LL	.	.	[4ee\	.	8.gg\L]	.
16B-y\	.	.	.	.	.	.
16c\	.	.	.	.	.	.
16G\JJ	.	.	.	.	16ee\Jk	.
16A\LL	.	6 5	8.ee\L]	.	4.ff\	.
16G\	.	.	.	.	.	.
16F\	.	.	.	.	.	.
16A\JJ	.	.	16cc#X\Jk	.	.	.
16B-y\LL	.	5	4dd\	.	.	.
16A\	.	.	.	.	.	.
16B-y\	.	6	.	.	8gg\	.
16A\JJ	.	.	.	.	.	.
=12	=12	=12	=12	=12	=12	=12
16G\LL	.	6-r	4gg\	.	(8ee-X\L	.
16F\	.	.	.	.	.	.
16G\	.	.	.	.	8cc#X\J)	.
16A\JJ	.	.	.	.	.	.
16B-y\LL	.	.	8ff\L	.	2dd\t	.
16A\	.	.	.	.	.	.
16G\	.	.	8ee\J	.	.	.
16B-y\JJ	.	.	.	.	.	.
16A\LL	.	6 4	4ff\T	.	.	.
16G\	.	.	.	.	.	.
16F\	.	.	.	.	.	.
16G\JJ	.	.	.	.	.	.
16A\LL	.	5 #	4ee\	.	4cc#X\	.
16G\	.	.	.	.	.	.
16A\	.	.	.	.	.	.
16AA\JJ	.	.	.	.	.	.
!!LO:LB:g=original
=13	=13	=13	=13	=13	=13	=13
4D\	.	.	4dd\	.	16dd/LL	.
.	.	.	.	.	16a/	.
.	.	.	.	.	16f/	.
.	.	.	.	.	16d/JJ	.
4r	.	.	16r	.	4dd\	.
.	.	.	16a/LL	.	.	.
.	.	.	16f/	.	.	.
.	.	.	16a/JJ	.	.	.
4.D\	.	.	4.d/	.	4r	.
.	.	.	.	.	8r	.
=:|!|:	=:|!|:	=:|!|:	=:|!|:	=:|!|:	=:|!|:	=:|!|:
*>B	*>B	*>B	*>B	*>B	*>B	*>B
8r	.	.	8r	.	8a/	.
=14	=14	=14	=14	=14	=14	=14
8r	.	.	4r	.	8dd\L	.
8d\	.	.	.	.	8a\	.
4c#X\	.	6	8r	.	8ee\	.
.	.	.	8a/	.	8a\J	.
8r	.	.	8dd\L	.	4ff\	.
8d\	.	.	8a\	.	.	.
4c#X\	.	6	8ee\	.	8r	.
.	.	.	8a\J	.	8ee\	.
=15	=15	=15	=15	=15	=15	=15
8r	.	.	4ff\	.	8dd\L	.
8d\	.	.	.	.	8a\	.
4c#X\	.	6	8r	.	8ee\	.
.	.	.	8ee\	.	8a\J	.
8r	.	.	8dd\L	.	4ff\	.
8d\	.	.	8a\	.	.	.
4c#X\	.	6	8ee\	.	8r	.
.	.	.	8a\J	.	8ee\	.
=16	=16	=16	=16	=16	=16	=16
8d\L	.	.	8ff\L	.	4dd\	.
8D\J	.	.	8dd\J	.	.	.
4r	.	.	[4aa\	.	8r	.
.	.	.	.	.	8dd\	.
8r	.	.	16aa\LL]	.	[4bb-y\	.
.	.	.	16dd\	.	.	.
8d\	.	.	16ff\	.	.	.
.	.	.	16dd\JJ	.	.	.
8e-X\L	.	6 5	[4gg\	.	16bb-y\LL]	.
.	.	.	.	.	16bb-y\	.
8c\J	.	.	.	.	16ccc\	.
.	.	.	.	.	16bb-y\JJ	.
=17	=17	=17	=17	=17	=17	=17
8d\L	.	6 4	16gg\LL]	.	[4aa\	.
.	.	.	16cc\	.	.	.
8c\	.	.	16ee-X\	.	.	.
.	.	.	16cc\JJ	.	.	.
8d\	.	3	[4ff\	.	16aa\LL]	.
.	.	.	.	.	16aa\	.
8B-y\J	.	.	.	.	16bb-y\	.
.	.	.	.	.	16aa\JJ	.
4c\	.	6 4	8ff\]	.	8.gg\L	.
.	.	-	4ee-X\	.	.	.
.	.	.	.	.	16aa\k	.
8A\L	.	6 5-r	.	.	8.ff\	.
8B-y\J	.	.	[8dd\	.	.	.
.	.	.	.	.	16gg\Jk	.
!!LO:PB:g=original
=18	=18	=18	=18	=18	=18	=18
8G\L	.	6-r 5	8dd\]	.	8.ee-X\L	.
8A\	.	.	4cc\	.	.	.
.	.	.	.	.	16ff\k	.
8F\	.	6 5	.	.	8.dd\	.
8G\J	.	.	4b-y\	.	.	.
.	.	.	.	.	16ee-X\Jk	.
8E-X\L	.	6 5	.	.	8.cc\L	.
8F\	.	.	4a/	.	.	.
.	.	.	.	.	16dd\k	.
8D\	.	6 5	.	.	8.b-y\	.
8E-X\J	.	.	8g/	.	.	.
.	.	.	.	.	16cc\Jk	.
=19	=19	=19	=19	=19	=19	=19
8E-y\L	.	4 2	8f/	.	8a\L	.
16D\L	.	6	4b-y\	.	8ff\	.
16E-X\JJ	.	.	.	.	.	.
8F/L	.	5 4	.	.	8cc\	.
8FF/J	.	3	8a/	.	8ff\J	.
4BB-y/	.	.	4b-y\	.	8dd\L	.
.	.	.	.	.	8ff\J	.
4r	.	.	8r	.	[4bb-y\	.
.	.	.	8b-y\	.	.	.
=20	=20	=20	=20	=20	=20	=20
1r	.	.	[2ff\	.	8bb-y\L]	.
.	.	.	.	.	8aa-X\J	.
.	.	.	.	.	16aa-y\LL	.
.	.	.	.	.	16gg\	.
.	.	.	.	.	16ff\	.
.	.	.	.	.	16aa-X\JJ	.
.	.	.	8ff\L]	.	8gg\L	.
.	.	.	8ee-X\J	.	8cc\J	.
.	.	.	16ee-y\LL	.	[4ccc\	.
.	.	.	16dd\	.	.	.
.	.	.	16cc\	.	.	.
.	.	.	16ee-X\JJ	.	.	.
=21	=21	=21	=21	=21	=21	=21
1r	.	.	8dd\L	.	8ccc\L]	.
.	.	.	8g\J	.	8bb-y\J	.
.	.	.	[4gg\	.	16bb-y\LL	.
.	.	.	.	.	16aa\	.
.	.	.	.	.	16gg\	.
.	.	.	.	.	16bb-y\JJ	.
.	.	.	8gg\L]	.	8aa\L	.
.	.	.	8ff\J	.	8dd\J	.
.	.	.	16ff\LL	.	[4ddd\	.
.	.	.	16ee\	.	.	.
.	.	.	16dd\	.	.	.
.	.	.	16ff\JJ	.	.	.
!!LO:LB:g=original
=22	=22	=22	=22	=22	=22	=22
2r	.	.	8ee\L	.	8ddd\L]	.
.	.	.	8a\J	.	8ccc\J	.
.	.	.	[4aa\	.	16ccc\LL	.
.	.	.	.	.	16bb-y\	.
.	.	.	.	.	16aa\	.
.	.	.	.	.	16ccc\JJ	.
16d\LL	.	6 5	8.aa\L]	.	[4bb-y\	.
16c\	.	.	.	.	.	.
16B-y\	.	.	.	.	.	.
16d\JJ	.	.	16ff#X\Jk	.	.	.
16e-X\LL	.	.	[4gg\	.	8.bb-y\L]	.
16d\	.	.	.	.	.	.
16e-y\	.	.	.	.	.	.
16B-y\JJ	.	.	.	.	16gg\Jk	.
=23	=23	=23	=23	=23	=23	=23
16c\LL	.	6 5	8.gg\L]	.	[4aa\	.
16B-y\	.	.	.	.	.	.
16A\	.	.	.	.	.	.
16c\JJ	.	.	16ee\Jk	.	.	.
16d\LL	.	.	[4ffn\	.	8.aa\L]	.
16c\	.	.	.	.	.	.
16d\	.	.	.	.	.	.
16A\JJ	.	.	.	.	16ff\Jk	.
16B-y\LL	.	6 5	8.ff\L]	.	[4gg\	.
16A\	.	.	.	.	.	.
16G\	.	.	.	.	.	.
16B-y\JJ	.	.	16dd\k	.	.	.
16c\LL	.	-	8ee-X\	.	16gg\LL]	.
16B-y\	.	.	.	.	16bb-y\	.
16c\	.	.	8cc\J	.	16aa\	.
16A\JJ	.	.	.	.	16gg\JJ	.
=24	=24	=24	=24	=24	=24	=24
8d\L	.	#	4a/	.	(16ff#X\LL	.
.	.	.	.	.	16ee\J)	.
8c\	.	.	.	.	8dd\J	.
8B-y\	.	6	8dd\L	.	8r	.
8G\J	.	.	8b-y\J	.	8gg\	.
4c\	.	6-r -	4.ee-X\	.	(8aa-X\L	.
.	.	.	.	.	8gg\)	.
4C/	.	.	.	.	(8aa-X\	.
.	.	.	8ee-y\	.	8gg\J)	.
=25	=25	=25	=25	=25	=25	=25
4D\	.	#	4a/	.	(8ff#X\L	.
.	.	.	.	.	8aan\)	.
4C/	.	6 4#|	8r	.	(8dd\	.
.	.	.	8aa\	.	8ff#X\J)	.
8BB-y\L	.	6	4dd\	.	(8gg\L	.
8B-y\	.	.	.	.	8dd\)	.
8F#X\	.	6	8r	.	(8aa\	.
8D\J	.	.	8ff#X\	.	8dd\J)	.
!!LO:LB:g=original
=26	=26	=26	=26	=26	=26	=26
8E-X/L	.	6	8gg\L	.	(8ccc\L	.
16D/L	.	.	8aa\	.	8ff#X\J)	.
16C/JJ	.	.	.	.	.	.
8BB-y/L	.	6	8dd\	.	2gg\T	.
8C/J	.	.	8cc\J	.	.	.
8D/L	.	6 4	4b-y\	.	.	.
8C/	.	.	.	.	.	.
8D/	.	5 #	4a/t	.	4ff#X\	.
8DD/J	.	.	.	.	.	.
=27	=27	=27	=27	=27	=27	=27
8GG\L	.	.	4g/	.	4gg\	.
16G\L	p	.	.	.	.	.
16A\JJ	.	.	.	.	.	.
8B-y\L	.	6	8dd\L	p	8r	.
8G\J	.	.	8b-y\J	.	8gg\	p
4c\	.	6-r -	4.ee-X\	.	(8aa-X\L	.
.	.	.	.	.	8gg\)	.
4C/	.	.	.	.	(8aa-X\	.
.	.	.	8ee-y\	.	8gg\J)	.
=28	=28	=28	=28	=28	=28	=28
4D\	.	#	4a/	.	(8ff#X\L	.
.	.	.	.	.	8aan\)	.
4C/	.	6 4#|	8r	.	(8dd\	.
.	.	.	8aan\	.	8ff#X\J)	.
4BB-y/	.	6	8dd\	.	(8gg\L	.
.	.	.	4gg\	.	8dd\)	.
[4C/	.	.	.	.	(8ee-X\	.
.	.	.	8ee-X\	.	8cc\J)	.
=29	=29	=29	=29	=29	=29	=29
8C/L]	.	6-r	4cc\	.	(8a-X/L	.
8D/	.	#	.	.	8f#X/J)	.
8E-X/	.	5	(8b-y/L	.	2g/t	.
8C/J	.	6nr	8a/J)	.	.	.
8D/L	.	6 4	4b-y\	.	.	.
8C/	.	.	.	.	.	.
8D/	.	5 #	4a/t	.	4f#X/	.
8DD/J	.	.	.	.	.	.
=30	=30	=30	=30	=30	=30	=30
4GG/	f	.	4g/	.	16g/LL	f
.	.	.	.	.	16d/	.
.	.	.	.	.	16B-y/	.
.	.	.	.	.	16G/JJ	.
4r	.	.	16r	.	4g/	.
.	.	.	16d/LL	f	.	.
.	.	.	16B-y/	.	.	.
.	.	.	16d/JJ	.	.	.
4.GG/	.	.	4.G/	.	4r	.
.	.	.	.	.	8r	.
=:|!	=:|!	=:|!	=:|!	=:|!	=:|!	=:|!
*-	*-	*-	*-	*-	*-	*-
!!!SMS: RV 73 / Estienne Roger (No. 363), Amsterdam [facs.]
!!!ENC: Fran Bennion  rev. 05/12/21 E Correia
!!!END: 2004/09/22
!!!ONB: Converted from MuseData with musedata2hum on Sat May 11 12:01:52 2024
!!!YEM: (C) 2004, 2019 Center for Computer Assisted Research in the Humanities
!!!system-decoration: [(s1,s2,s3)]
!!!URL-info: https://wiki.ccarh.org/wiki/MuseData:_Antonio_Vivaldi#Op._1:_Suonate_da_camera_a_tr.C3.A8.2C_due_violini_e_violone_o_cembalo Information about Vivaldi Op. 1 on the CCARH wiki
!!!URL-pdf: https://pdf.musedata.org/vivaldi-op01-no01.pdf#page=2 MuseData edition
!!!URL-pdf: https://s9.imslp.org/files/imglnks/usimg/1/18/IMSLP280399-PMLP10351-Vivaldi_Sonatas_Op_1_-_Violino_Primo.pdf#page=3 Violino primo part, Amsterdam: Estienne Roger, n.d.(ca.1723). Plate 363.
!!!URL-pdf: https://s9.imslp.org/files/imglnks/usimg/d/d5/IMSLP280400-PMLP10351-Vivaldi_Sonatas_Op_1_-_Violino_Secondo.pdf#page=3 Violino secondo part, Amsterdam: Estienne Roger, n.d.(ca.1723). Plate 363.
!!!URL-pdf: https://s9.imslp.org/files/imglnks/usimg/8/89/IMSLP280401-PMLP10351-Vivaldi_Sonatas_Op_1_-_Organo_e_Violoncello.pdf#page=3 Organo e Violoncello parts, Amsterdam: Estienne Roger, n.d.(ca.1723). Plate 363.
!!!URL-youtube: https://www.youtube.com/watch?v=P5HHPe_W6Uo&t=106s L'Arte dell'Arco
!!!URL-youtube: https://www.youtube.com/watch?v=vFz1e6g68iQ&t=91s Seattle Baroque Soloists (2010)
!!!title: @{OTL}, mov. @{OMV}
!!!filter-vcross: vcross
!!!EEV: 2024/05/11
!!!source-file: https://bitbucket.org/musedata/vivaldi/src/master/roger/op1/no01/stage2/02/01
!!!source-file: https://bitbucket.org/musedata/vivaldi/src/master/roger/op1/no01/stage2/02/02
!!!source-file: https://bitbucket.org/musedata/vivaldi/src/master/roger/op1/no01/stage2/02/03
!!!source-file: https://bitbucket.org/musedata/vivaldi/src/master/roger/op1/no01/stage2/02/04
